src/base/static/base/assets/include/rs-plugin/demos/assets/svg/action/ic_theaters_24px.svg

<svg height="24" viewBox="0 0 24 24" width="24" xmlns="http://www.w3.org/2000/svg"><path d="m18 3v2h-2v-2h-8v2h-2v-2h-2v18h2v-2h2v2h8v-2h2v2h2v-18zm-10 14h-2v-2h2zm0-4h-2v-2h2zm0-4h-2v-2h2zm10 8h-2v-2h2zm0-4h-2v-2h2zm0-4h-2v-2h2z"/></svg>

<svg xmlns="http://www.w3.org/2000/svg" width="24" height="24" viewBox="0 0 24 24"><path d="M18 3v2h-2V3H8v2H6V3H4v18h2v-2h2v2h8v-2h2v2h2V3h-2zM8 17H6v-2h2v2zm0-4H6v-2h2v2zm0-4H6V7h2v2zm10 8h-2v-2h2v2zm0-4h-2v-2h2v2zm0-4h-2V7h2v2z"/></svg>
